X: 37452
T: Sliabh Na mBan
R: hornpipe
M: 4/4
K: Gmajor
|:BA|u(GD)vB,u(D G,)DB,D|Gv(BA)G (3vEuFvG u(3(DEF)|
GB v(3(def) gdBd|cBAG Fedc|(3BAG FG EDB,D|
GBAG (3EFG (3DEF|GBdg (3efg dc|B2 G2 G2:|
|:Bc|vdg u(3(gfg) bg u(3(gfg)|vdgbu(g ag)fg|a^gab c'eag|
(3fgf (3efe dgBc|dg (3gfg bg (3gfg|dgbg (3efg dc|

